docs/styles/img/icons/fb.svg

<svg width="12" height="25" viewBox="0 0 12 25" fill="none" xmlns="http://www.w3.org/2000/svg">
<path fill-rule="evenodd" clip-rule="evenodd" d="M7.50154 24.2831V12.1929H10.839L11.2813 8.02651H7.50154L7.50721 5.94121C7.50721 4.85455 7.61046 4.2723 9.1712 4.2723H11.2576V0.105469H7.91973C3.91037 0.105469 2.49918 2.1266 2.49918 5.52551V8.02698H0V12.1933H2.49918V24.2831H7.50154Z" fill="#AEAEAE"/>
</svg>

<svg width="12" height="25" fill="none" xmlns="http://www.w3.org/2000/svg"><path fill-rule="evenodd" clip-rule="evenodd" d="M7.502 24.283v-12.09h3.337l.442-4.166h-3.78l.006-2.086c0-1.086.103-1.669 1.664-1.669h2.087V.105H7.92c-4.01 0-5.42 2.022-5.42 5.42v2.502H0v4.166h2.5v12.09h5.002z" fill="#AEAEAE"/></svg>
